packages/core/src/svgs/tokens/mono/QTUM.svg

<svg width="24" height="24" viewBox="0 0 24 24" fill="none" xmlns="http://www.w3.org/2000/svg">
<path fill-rule="evenodd" clip-rule="evenodd" d="M9.06938 3.65576H14.4924L18.8712 6.85948L20.5333 12.0217L18.9279 16.9193L20.893 18.7281L20.5162 19.1374L18.5871 17.3601L14.4484 20.3442H9.02546L4.64655 17.1366L2.98438 11.975L4.67435 6.82169L9.06938 3.65576ZM18.7177 15.7758L18.188 11.9766L18.7355 8.25204L19.9491 12.0201L18.7177 15.7758ZM18.0569 6.95232L14.9482 4.67809L15.9877 7.73672L18.0569 6.95232ZM15.8388 8.72457L14.3633 11.975L15.8388 15.1792L17.5909 11.975L15.8388 8.72457ZM17.7478 12.8467L16.2078 15.6634L18.2647 16.5513L17.7478 12.8467ZM18.0479 17.0633L15.9833 16.1722L14.9037 19.3303L18.0479 17.0633ZM14.2733 19.4575L15.4101 16.1304L12.2369 16.5373L14.2733 19.4575ZM12.2442 15.9759L15.4068 15.57L14.0398 12.6016L12.2442 15.9759ZM14.042 11.3384L15.4118 8.31987L12.2425 7.85067L14.042 11.3384ZM13.744 11.9739L11.7327 8.07527L9.48078 11.9734L11.7322 15.7536L13.744 11.9739ZM11.2519 16.5412L9.17945 19.4925L7.7869 16.1293L11.2519 16.5412ZM7.76521 15.5673L9.18724 12.5659L11.2191 15.9776L7.76521 15.5673ZM8.85202 11.975L7.33605 15.1753L5.65498 11.975L7.33605 8.72846L8.85202 11.975ZM7.20652 7.72948L8.50124 4.7498L5.46207 6.93898L7.20652 7.72948ZM4.7505 8.37323L3.56864 11.9766L4.73049 15.5856L5.06237 11.975L4.7505 8.37323ZM5.53211 12.9373L6.96803 15.6707L5.20468 16.5062L5.53211 12.9373ZM5.53545 10.9966L5.22747 7.44319L6.96748 8.23147L5.53545 10.9966ZM5.42427 17.0171L8.47956 19.2552L7.20375 16.1744L5.42427 17.0171ZM9.65148 19.7883H13.8263L11.7461 16.8053L9.65148 19.7883ZM9.22003 4.49075L7.80079 7.75617L11.2492 7.28364L9.22003 4.49075ZM9.70427 4.21167L11.75 7.02681L13.8474 4.21167H9.70427ZM14.3083 4.52354L12.2476 7.28921L15.4079 7.75728L14.3083 4.52354ZM11.2224 7.84845L7.76022 8.3232L9.18502 11.3751L11.2224 7.84845ZM17.7544 11.1061L16.2129 8.24649L18.2909 7.4582L17.7544 11.1061Z" fill="white"/>
<path d="M10.337 4.21729C10.337 4.51216 10.2199 4.79496 10.0113 5.00346C9.80285 5.21198 9.52008 5.32911 9.22518 5.32911C8.9303 5.32911 8.64752 5.21198 8.439 5.00346C8.2305 4.79496 8.11336 4.51216 8.11336 4.21729C8.11336 3.92241 8.2305 3.63961 8.439 3.43111C8.64752 3.2226 8.9303 3.10547 9.22518 3.10547C9.52008 3.10547 9.80285 3.2226 10.0113 3.43111C10.2199 3.63961 10.337 3.92241 10.337 4.21729ZM15.3291 4.21729C15.3291 4.51216 15.212 4.79496 15.0034 5.00346C14.795 5.21198 14.5122 5.32911 14.2172 5.32911C13.9224 5.32911 13.6396 5.21198 13.431 5.00346C13.2226 4.79496 13.1055 4.51216 13.1055 4.21729C13.1055 3.92241 13.2226 3.63961 13.431 3.43111C13.6396 3.2226 13.9224 3.10547 14.2172 3.10547C14.5122 3.10547 14.795 3.2226 15.0034 3.43111C15.212 3.63961 15.3291 3.92241 15.3291 4.21729ZM4.76677 8.10867C5.06165 8.10867 5.34445 7.99153 5.55295 7.78303C5.76146 7.57451 5.87859 7.29171 5.87859 6.99685C5.87859 6.70197 5.76146 6.41917 5.55295 6.21067C5.34445 6.00216 5.06165 5.88502 4.76677 5.88502C4.4719 5.88502 4.1891 6.00216 3.9806 6.21067C3.77208 6.41917 3.65495 6.70197 3.65495 6.99685C3.65495 7.29171 3.77208 7.57451 3.9806 7.78303C4.1891 7.99153 4.4719 8.10867 4.76677 8.10867ZM17.5528 6.99685C17.5528 7.29171 17.6699 7.57451 17.8784 7.78303C18.0868 7.99153 18.3697 8.10867 18.6646 8.10867C18.9594 8.10867 19.2422 7.99153 19.4508 7.78303C19.6592 7.57451 19.7763 7.29171 19.7763 6.99685C19.7763 6.70197 19.6592 6.41917 19.4508 6.21067C19.2422 6.00216 18.9594 5.88502 18.6646 5.88502C18.3697 5.88502 18.0868 6.00216 17.8784 6.21067C17.6699 6.41917 17.5528 6.70197 17.5528 6.99685ZM7.55578 9.22049C7.85065 9.22049 8.13345 9.10336 8.34195 8.89485C8.55047 8.68635 8.66761 8.40355 8.66761 8.10867C8.66761 7.81379 8.55047 7.53099 8.34195 7.32249C8.13345 7.11398 7.85065 6.99685 7.55578 6.99685C7.2609 6.99685 6.97811 7.11398 6.7696 7.32249C6.5611 7.53099 6.44396 7.81379 6.44396 8.10867C6.44396 8.40355 6.5611 8.68635 6.7696 8.89485C6.97811 9.10336 7.2609 9.22049 7.55578 9.22049ZM14.7642 8.10867C14.7642 8.40355 14.8814 8.68635 15.0899 8.89485C15.2984 9.10336 15.5813 9.22049 15.8761 9.22049C16.171 9.22049 16.4537 9.10336 16.6623 8.89485C16.8708 8.68635 16.9879 8.40355 16.9879 8.10867C16.9879 7.81379 16.8708 7.53099 16.6623 7.32249C16.4537 7.11398 16.171 6.99685 15.8761 6.99685C15.5813 6.99685 15.2984 7.11398 15.0899 7.32249C14.8814 7.53099 14.7642 7.81379 14.7642 8.10867ZM11.7157 8.66458C12.0106 8.66458 12.2933 8.54744 12.5018 8.33893C12.7104 8.13042 12.8275 7.84764 12.8275 7.55276C12.8275 7.25788 12.7104 6.97508 12.5018 6.76658C12.2933 6.55807 12.0106 6.44094 11.7157 6.44094C11.4208 6.44094 11.138 6.55807 10.9295 6.76658C10.721 6.97508 10.6038 7.25788 10.6038 7.55276C10.6038 7.84764 10.721 8.13042 10.9295 8.33893C11.138 8.54744 11.4208 8.66458 11.7157 8.66458ZM9.22518 18.671C9.52008 18.671 9.80285 18.7882 10.0113 18.9966C10.2199 19.2052 10.337 19.488 10.337 19.7828C10.337 20.0776 10.2199 20.3605 10.0113 20.569C9.80285 20.7774 9.52008 20.8947 9.22518 20.8947C8.9303 20.8947 8.64752 20.7774 8.439 20.569C8.2305 20.3605 8.11336 20.0776 8.11336 19.7828C8.11336 19.488 8.2305 19.2052 8.439 18.9966C8.64752 18.7882 8.9303 18.671 9.22518 18.671ZM14.2172 18.671C14.5122 18.671 14.795 18.7882 15.0034 18.9966C15.212 19.2052 15.3291 19.488 15.3291 19.7828C15.3291 20.0776 15.212 20.3605 15.0034 20.569C14.795 20.7774 14.5122 20.8947 14.2172 20.8947C13.9224 20.8947 13.6396 20.7774 13.431 20.569C13.2226 20.3605 13.1055 20.0776 13.1055 19.7828C13.1055 19.488 13.2226 19.2052 13.431 18.9966C13.6396 18.7882 13.9224 18.671 14.2172 18.671ZM5.87859 17.0033C5.87859 16.7083 5.76146 16.4256 5.55295 16.2171C5.34445 16.0085 5.06165 15.8914 4.76677 15.8914C4.4719 15.8914 4.1891 16.0085 3.9806 16.2171C3.77208 16.4256 3.65495 16.7083 3.65495 17.0033C3.65495 17.2982 3.77208 17.5809 3.9806 17.7894C4.1891 17.998 4.4719 18.1151 4.76677 18.1151C5.06165 18.1151 5.34445 17.998 5.55295 17.7894C5.76146 17.5809 5.87859 17.2982 5.87859 17.0033ZM18.6646 15.8914C18.3697 15.8914 18.0868 16.0085 17.8784 16.2171C17.6699 16.4256 17.5528 16.7083 17.5528 17.0033C17.5528 17.2982 17.6699 17.5809 17.8784 17.7894C18.0868 17.998 18.3697 18.1151 18.6646 18.1151C18.9594 18.1151 19.2422 17.998 19.4508 17.7894C19.6592 17.5809 19.7763 17.2982 19.7763 17.0033C19.7763 16.7083 19.6592 16.4256 19.4508 16.2171C19.2422 16.0085 18.9594 15.8914 18.6646 15.8914ZM19.7763 19.2647C19.7763 18.9699 19.8935 18.687 20.102 18.4785C20.3105 18.27 20.5934 18.1528 20.8882 18.1528C21.1831 18.1528 21.4658 18.27 21.6744 18.4785C21.8829 18.687 22 18.9699 22 19.2647C22 19.5596 21.8829 19.8423 21.6744 20.0509C21.4658 20.2594 21.1831 20.3765 20.8882 20.3765C20.5934 20.3765 20.3105 20.2594 20.102 20.0509C19.8935 19.8423 19.7763 19.5596 19.7763 19.2647ZM7.55522 14.7797C7.8501 14.7797 8.1329 14.8968 8.34141 15.1052C8.54991 15.3138 8.66705 15.5966 8.66705 15.8914C8.66705 16.1863 8.54991 16.4692 8.34141 16.6776C8.1329 16.8861 7.8501 17.0033 7.55522 17.0033C7.26036 17.0033 6.97756 16.8861 6.76904 16.6776C6.56054 16.4692 6.4434 16.1863 6.4434 15.8914C6.4434 15.5966 6.56054 15.3138 6.76904 15.1052C6.97756 14.8968 7.26036 14.7797 7.55522 14.7797ZM14.7642 15.8914C14.7642 15.5966 14.8814 15.3138 15.0899 15.1052C15.2984 14.8968 15.5813 14.7797 15.8761 14.7797C16.171 14.7797 16.4537 14.8968 16.6623 15.1052C16.8708 15.3138 16.9879 15.5966 16.9879 15.8914C16.9879 16.1863 16.8708 16.4692 16.6623 16.6776C16.4537 16.8861 16.171 17.0033 15.8761 17.0033C15.5813 17.0033 15.2984 16.8861 15.0899 16.6776C14.8814 16.4692 14.7642 16.1863 14.7642 15.8914ZM13.9393 10.8883C13.6444 10.8883 13.3617 11.0054 13.1531 11.2138C12.9446 11.4224 12.8275 11.7052 12.8275 12C12.8275 12.2949 12.9446 12.5778 13.1531 12.7862C13.3617 12.9947 13.6444 13.1119 13.9393 13.1119C14.2342 13.1119 14.517 12.9947 14.7255 12.7862C14.934 12.5778 15.0512 12.2949 15.0512 12C15.0512 11.7052 14.934 11.4224 14.7255 11.2138C14.517 11.0054 14.2342 10.8883 13.9393 10.8883ZM10.3499 12C10.3499 11.7052 10.2326 11.4224 10.0241 11.2138C9.8157 11.0054 9.53279 10.8883 9.23797 10.8883C8.94309 10.8883 8.66029 11.0054 8.45179 11.2138C8.24328 11.4224 8.12615 11.7052 8.12615 12C8.12615 12.2949 8.24328 12.5778 8.45179 12.7862C8.66029 12.9947 8.94309 13.1119 9.23797 13.1119C9.53279 13.1119 9.8157 12.9947 10.0241 12.7862C10.2326 12.5778 10.3499 12.2949 10.3499 12ZM17.7863 10.8883C17.4913 10.8883 17.2085 11.0054 17.0001 11.2138C16.7915 11.4224 16.6744 11.7052 16.6744 12C16.6744 12.2949 16.7915 12.5778 17.0001 12.7862C17.2085 12.9947 17.4913 13.1119 17.7863 13.1119C18.0811 13.1119 18.3639 12.9947 18.5723 12.7862C18.7809 12.5778 18.8981 12.2949 18.8981 12C18.8981 11.7052 18.7809 11.4224 18.5723 11.2138C18.3639 11.0054 18.0811 10.8883 17.7863 10.8883ZM6.7308 12C6.7308 11.7052 6.61367 11.4224 6.40516 11.2138C6.19666 11.0054 5.91386 10.8883 5.61898 10.8883C5.32411 10.8883 5.04131 11.0054 4.83281 11.2138C4.6243 11.4224 4.50717 11.7052 4.50717 12C4.50717 12.2949 4.6243 12.5778 4.83281 12.7862C5.04131 12.9947 5.32411 13.1119 5.61898 13.1119C5.91386 13.1119 6.19666 12.9947 6.40516 12.7862C6.61367 12.5778 6.7308 12.2949 6.7308 12ZM20.2934 10.8883C19.9985 10.8883 19.7158 11.0054 19.5072 11.2138C19.2987 11.4224 19.1816 11.7052 19.1816 12C19.1816 12.2949 19.2987 12.5778 19.5072 12.7862C19.7158 12.9947 19.9985 13.1119 20.2934 13.1119C20.5882 13.1119 20.8711 12.9947 21.0796 12.7862C21.288 12.5778 21.4053 12.2949 21.4053 12C21.4053 11.7052 21.288 11.4224 21.0796 11.2138C20.8711 11.0054 20.5882 10.8883 20.2934 10.8883ZM4.22365 12C4.22365 11.7052 4.10651 11.4224 3.89799 11.2138C3.68949 11.0054 3.4067 10.8883 3.11182 10.8883C2.81694 10.8883 2.53416 11.0054 2.32564 11.2138C2.11714 11.4224 2 11.7052 2 12C2 12.2949 2.11714 12.5778 2.32564 12.7862C2.53416 12.9947 2.81694 13.1119 3.11182 13.1119C3.4067 13.1119 3.68949 12.9947 3.89799 12.7862C4.10651 12.5778 4.22365 12.2949 4.22365 12ZM11.7157 15.3355C12.0106 15.3355 12.2933 15.4526 12.5018 15.6612C12.7104 15.8696 12.8275 16.1525 12.8275 16.4474C12.8275 16.7422 12.7104 17.025 12.5018 17.2336C12.2933 17.442 12.0106 17.5591 11.7157 17.5591C11.4208 17.5591 11.138 17.442 10.9295 17.2336C10.721 17.025 10.6038 16.7422 10.6038 16.4474C10.6038 16.1525 10.721 15.8696 10.9295 15.6612C11.138 15.4526 11.4208 15.3355 11.7157 15.3355Z" fill="white"/>
</svg>

<svg xmlns="http://www.w3.org/2000/svg" width="24" height="24" fill="none" viewBox="0 0 24 24">
    <path fill="#fff" fill-rule="evenodd" d="M9.07 3.656h5.422l4.38 3.203 1.661 5.163-1.605 4.897 1.965 1.81-.377.408-1.929-1.777-4.139 2.984H9.025l-4.378-3.207-1.663-5.162 1.69-5.153zm9.648 12.12-.53-3.8.547-3.724 1.214 3.768zm-.661-8.824-3.109-2.274 1.04 3.059zm-2.218 1.773-1.476 3.25 1.476 3.204 1.752-3.204zm1.909 4.122-1.54 2.816 2.057.888zm.3 4.216-2.065-.89-1.08 3.157zm-3.775 2.395 1.137-3.328-3.173.407zm-2.029-3.482 3.163-.406-1.367-2.968zm1.798-4.638 1.37-3.018-3.17-.47zm-.298.636-2.011-3.899-2.252 3.898 2.251 3.78zm-2.492 4.567-2.073 2.951-1.392-3.363zm-3.487-.974 1.422-3.001 2.032 3.412zm1.087-3.592-1.516 3.2-1.681-3.2 1.681-3.247zM7.207 7.729 8.5 4.75 5.462 6.94zm-2.456.644-1.182 3.604 1.161 3.609.332-3.611zm.781 4.564 1.436 2.734-1.763.835zm.003-1.94-.308-3.554 1.74.788zm-.11 6.02 3.055 2.238-1.276-3.08zm4.226 2.771h4.175l-2.08-2.983zM9.22 4.491 7.8 7.756l3.45-.472zm.484-.28 2.046 2.816 2.097-2.815zm4.604.313-2.06 2.765 3.16.468zm-3.086 3.324-3.462.475 1.425 3.052zm6.532 3.258-1.541-2.86 2.078-.788z" clip-rule="evenodd"/>
    <path fill="#fff" d="M10.337 4.217a1.111 1.111 0 1 1-2.223 0 1.111 1.111 0 0 1 2.223 0m4.992 0a1.111 1.111 0 1 1-2.223 0 1.111 1.111 0 0 1 2.223 0M4.767 8.11a1.112 1.112 0 1 0 0-2.224 1.112 1.112 0 0 0 0 2.224m12.786-1.112a1.112 1.112 0 1 0 2.224 0 1.112 1.112 0 0 0-2.224 0M7.556 9.22a1.112 1.112 0 1 0 0-2.223 1.112 1.112 0 0 0 0 2.223m7.208-1.111a1.112 1.112 0 1 0 2.224 0 1.112 1.112 0 0 0-2.224 0m-3.048.556a1.112 1.112 0 1 0 0-2.224 1.112 1.112 0 0 0 0 2.224M9.226 18.67a1.112 1.112 0 1 1-.001 2.224 1.112 1.112 0 0 1 0-2.224m4.991 0a1.112 1.112 0 1 1 0 2.224 1.112 1.112 0 0 1 0-2.224M5.88 17.003a1.112 1.112 0 1 0-2.224 0 1.112 1.112 0 0 0 2.224 0m12.786-1.112a1.111 1.111 0 1 0 0 2.223 1.111 1.111 0 0 0 0-2.223m1.111 3.374a1.112 1.112 0 1 1 2.224 0 1.112 1.112 0 0 1-2.224 0M7.556 14.78a1.112 1.112 0 1 1 0 2.224 1.112 1.112 0 0 1 0-2.224m7.208 1.111a1.112 1.112 0 1 1 2.225 0 1.112 1.112 0 0 1-2.225 0m-.825-5.003a1.112 1.112 0 1 0 0 2.225 1.112 1.112 0 0 0 0-2.225M10.35 12a1.112 1.112 0 1 0-2.224 0 1.112 1.112 0 0 0 2.225 0m7.437-1.112a1.112 1.112 0 1 0 0 2.224 1.112 1.112 0 0 0 0-2.224M6.731 12a1.112 1.112 0 1 0-2.224 0 1.112 1.112 0 0 0 2.224 0m13.562-1.112a1.112 1.112 0 1 0 0 2.225 1.112 1.112 0 0 0 0-2.225M4.223 12A1.112 1.112 0 1 0 2 12a1.112 1.112 0 0 0 2.225 0m7.493 3.335a1.111 1.111 0 1 1 0 2.223 1.111 1.111 0 0 1 0-2.222"/>
</svg>
